!!!COM: Weidt, H.
!!!LAR: Arban, Jean-Baptiste
!!!OTL: How Fair Thou Art
!!!OPR: The Art of Phrasing: 150 Classic and Popular Melodies
!!!ONM: No. 004
!!!OMD: Moderato
**kern	**dynam
*ITromp	*
*ITrd1c2	*
*clefG2	*
*c:	*
*k[b-e-a-]	*
*M3/4	*
4g	p
=1	=1
4.g	.
8g	.
(b-q	.
(8.a-)L	.
16g)J	.
=2	=2
(4g	.
4f),	.
4cc	.
=3	=3
(4.cc	.
8b-)	.
(8fL	.
8f#)J	.
=4	=4
4g	.
4r	.
4g	.
=5	=5
(4.g	.
8g)	.
(b-q	.
(8.a-)L	.
16g)J	.
=6	=6
(8.gL	.
16f)J	.
4f),	.
4f	.
=7	=7
4.e-	.
(8e-L	.
8d	.
8c)J	.
=8	=8
2g,	.
*E-:	*
4g	.
=9	=9
[4b-	.
(12b-]L	.
12a-)	.
12fJ	.
(12dL	.
12f)	.
12a-J	.
=10	=10
(8.ccL	.
16b-)J	.
4g	.
8r	.
8e-	.
=11	=11
(4.ee-	.
8cc)	.
(8aL	.
8cc)J	.
=12	=12
2b-,	.
4g	<
=13	=13
4.g	(
8g	(
(a-q	(
(12g)L	(
12f)	(
12gJ	(
=14	=14
(4b-	(
4a-)	(
8r	(
8a-	(
=15	=15
4.a	(
8a	(
(b-q	(
(12a)L	(
12g)	(
12aJ	(
=16	=16
(4cc	(
4b-)	(
8r	(
8b-	[
=17	=17
(2ee-	ff
4dd)	.
=18	=18
2cc	.
4b-	.
=19	=19
2a-	.
(8b-L	.
8cc)J	.
=20	=20
2b-,	.
4b-$	.
=21	=21
(4ff	.
4ee-)	.
4b-	.
=22	=22
2cc,	.
4cc	.
=23	=23
(8ddL	.
16ee-	.
16dd)J	.
(4cc	.
4dd)	.
=24	=24
2ee-	.
==|!	==|!
*-	*-
!!!OCL: Edwin Franko Goldman
!!!OCL: Walter M. Smith
!!!OCL: Claude Gordon
!!!YOR: Arban's Complete Conservatory Method for Trumpet/Cornet
!!!PPR: Carl Fischer
!!!PPP: New York, NY
!!!PDT: 1893///
!!!reprint: Carl Fischer, 1982: ISBN 0-8258-0385-3
!!!EFL: 4/150
!!!ENC: Hubert Léveillé Gauvin
!!!END: 2018/05/11/